X: 588
T: Garfield's Blackberry Blossom
B: jims roots
M:4/4
L:1/8
Q: 1/4=100
K:C
V:1 cBGF D2C2 | [M:6/4
D2C2 DGG2 GABc:|[2 cBGF DCFC | DG2A G2G2|]
V:2 [M:6/4
"D"DG2A "G"G2GF GAB2 |:[M:4/4]d4 d4 | dcBF GABc | d4 dcBF | G2F2 G2B2 |
V:M:6/4 
d4 dcBd cBGB | [M:4/4]cBGF DCFC |[1 [M:6/4]DG2A G2G2 GAB2:| [2 [M:6/4]DG2A G2G2 GABc ||
% abcbook-tune_id 6298c25db3995cff97eabf52


% abcbook-boost 0
% abcbook-tablature 
% abcbook-transpose 
% abcbook-lastupdated 1654178398169
% abcbook-soundfonts 
% abcbook-repeats 1


